X: 24373
T: Love Of Lucia, The
R: jig
M: 6/8
K: Bminor
d|:BAF ~A2B|FED D2E|FAF A2B|AFE ~F2d|
BAF ~A2B|FED DEF|A2d Bdf|1 edB B3:|2 edB Bcd||
|:eBB edB|ABd ~F3|ABF ABF|EFF AB/c/d|
e2e ede|fed def|a2f efa|1 fed ~B3:|2 fed B3||

